X:196
T:Marche de Thomas Pomerleau 1
Z:robin.beech@mcgill.ca
S:T\^ete de violon
M:2/4
L:1/4
K:D
(3D/E/F/ | GA | FD | ED/C/ | DE/F/ | GA | GB | G/A/B/G/ | D (3D/E/F/ |
GA | FD | ED/C/ | DE/F/ | GA | GB | G2- | G ::
(3G/A/B/ | =c&gt;c | BB | BA/G/ | AA/B/ | AD | GA | BA/G/ | AA/B/ |
=c&gt;c | BB | BA/G/ | AA/B/ | AD | GB | G2 | G :|

